X:1
T:Title
%%score { ( 1 3 ) | 2 }
L:1/8
Q:1/4=100
M:4/4
K:Ab
V:1 treble nm="Grand Piano"
V:3 treble 
V:2 bass 
V:1
 [Ec]3 [=D_c] [E=c][CE][_DF][Fd] | [Ec]4 [CA]4 | B3 A GA d>c | B6 z2 | %4
w: W.~J.~Kirkpatrick * * * * *||||
 [Ec]3 [=D_c] [E=c][CE][_DF][Fd] | [Ec]4 [CA]4 | B3 A GA c>B | [CA]6 z2 | A3 B AFAB | c4 A4 | %10
w: ||||||
 [=EG]3 [EG] [FA][FA] [=DB]>[Dc] | [EB]6 z2 | [Ec]3 [=D_c] [E=c][CE][_DF][Fd] | [Ec]4 [CA]4 | %14
w: ||||
 B3 A GA c>B | [CA]6 z2 | e3 d c4 | [EAc]3 [DEB] [CEA]4 | A3 B ce e>c | [GB]6 [Ac][Bd] | %20
w: ||||||
 [Ae]4 [Ac]2 z2 | [Fd]4 [FA]2 z2 | c2 d2 c3 B | [CEA]6 z2 |] %24
w: ||||
V:2
 [A,,A,]3 [A,,A,] [A,,A,][A,,A,][D,A,][D,A,] | [A,,A,]4 [A,,E,]4 | %2
 [E,G,D]3 [E,A,C] [E,B,D][E,C] [E,B,E]>[E,A,E] | [E,G,E]6 z2 | %4
 [A,,A,]3 [A,,A,] [A,,A,][A,,A,][D,A,][D,A,] | [A,,A,]4 [A,,E,]4 | %6
 [E,G,D]3 [E,A,C] [E,B,D][E,C] [E,A,E]>[E,G,D] | [A,,A,]6 z2 | %8
 [F,CF]3 [F,DF] [F,CF][F,A,C][F,CF][F,G,F] | [F,A,F]4 [F,CF]4 | %10
 [C,C]3 [C,C] [F,C][F,C] [B,,B,]>[B,,A,] | [E,G,]6 z2 | %12
 [A,,A,]3 [A,,A,] [A,,A,][A,,A,][D,A,][D,A,] | [A,,A,]4 [A,,E,]4 | %14
 [E,G,D]3 [E,A,C] [E,B,D][E,C] [E,A,E]>[E,G,D] | [A,,A,]6 z2 | [A,CE]3 [A,B,E] [A,E]4 | %17
 A,,3 A,, A,,4 | [A,CE]3 [A,DE] [A,EA][A,CA] [A,CA]>[A,EA] | [E,E]6 [A,E][A,D] | %20
 [A,C]<A, A,A, A,<A,[K:treble] [A,EG][A,E_G] | [D,D]<D, D,D, D,D,D,[D,A,] | %22
 [E,A,E]2 [E,B,E]2 [E,A,E]3 [E,DE] | A,,6 z2 |] %24
V:3
 x8 | x8 | x8 | x8 | x8 | x8 | x8 | x8 | x8 | x8 | x8 | x8 | x8 | x8 | x8 | x8 | x8 | x8 | x8 | %19
 x8 | z/ C3/2 CC E<E Bc | z/ D3/2 A,A, DD[A,FA][=EB] | x8 | x8 |] %24

